modules/hawcons-filled/icons/icon-29-three-fingers-swipe-right.svg

<?xml version="1.0" encoding="UTF-8" standalone="no"?>
<svg width="32px" height="32px" viewBox="0 0 32 32" version="1.1" xmlns="http://www.w3.org/2000/svg" xmlns:xlink="http://www.w3.org/1999/xlink" xmlns:sketch="http://www.bohemiancoding.com/sketch/ns">
    <!-- Generator: Sketch 3.0.3 (7891) - http://www.bohemiancoding.com/sketch -->
    <title>icon 29 three fingers swipe right</title>
    <desc>Created with Sketch.</desc>
    <defs></defs>
    <g id="Page-1" stroke="none" stroke-width="1" fill="none" fill-rule="evenodd" sketch:type="MSPage">
        <g id="icon-29-three-fingers-swipe-right" sketch:type="MSArtboardGroup" fill="#929292">
            <path d="M27.1651456,7 L21.0324489,7 C20.8295045,6.41775657 20.2750113,6 19.6151466,6 C18.7867195,6 18.1151466,6.66254437 18.1151466,7.4912653 L18.1151466,14.5082011 L18.1151466,16 L17.1151466,16 L17.1151466,14.5082011 L17.1151466,5.49089813 C17.1151466,4.66749783 16.4493494,4 15.6151466,4 C14.7867195,4 14.1151466,4.67622006 14.1151466,5.49089813 L14.1151466,14.4325233 L14.1151466,17 L13.1151466,17 L13.1151466,14.5 L13.1151466,7.50863659 C13.1151466,6.67543961 12.4493494,6 11.6151466,6 C10.7867195,6 10.1151466,6.66642015 10.1151466,7.50863659 L10.1151466,17.7983451 C8.05674703,15.5979243 5.34677642,13.1791206 4.23617935,14.2957153 C3.14900956,15.3887562 5.95050863,18.4007216 9.86252212,24.9830936 C11.6251425,27.9488875 13.8554315,29.9995418 17.6151466,30 C21.7572825,30 25.1151466,26.6421358 25.1151466,22.5 L25.1151466,19.2468012 L25.1151466,14.5063976 C25.1151466,13.6744372 24.4493494,13 23.6151466,13 C22.7867195,13 22.1151466,13.6764628 22.1151466,14.5063976 L22.1151466,16.7497253 L22.1151466,17 L21.1151466,17 L21.1151466,14.6781559 L21.1151466,8 L27.1651456,8 L23.9151456,11.25 L24.6651456,12 L29.1651456,7.5 L24.6651456,3 L23.9151456,3.75 L27.1651456,7 L27.1651456,7 Z" id="three-fingers-swipe-right" sketch:type="MSShapeGroup"></path>
        </g>
    </g>
</svg>

<svg width="32" height="32" xmlns="http://www.w3.org/2000/svg"><path d="M27.165 7h-6.133c-.202-.582-.757-1-1.417-1-.828 0-1.5.663-1.5 1.491V16h-1V5.491a1.501 1.501 0 0 0-3 0V17h-1V7.509a1.5 1.5 0 1 0-3 0v10.29c-2.058-2.201-4.768-4.62-5.879-3.503C3.15 15.389 5.951 18.4 9.863 24.983 11.625 27.95 13.855 30 17.615 30a7.5 7.5 0 0 0 7.5-7.5v-7.993a1.5 1.5 0 1 0-3 0V17h-1V8h6.05l-3.25 3.25.75.75 4.5-4.5-4.5-4.5-.75.75L27.165 7z" fill="#929292" fill-rule="evenodd"/></svg>
